img/icons/invoices.svg

<svg width="18" height="18" viewBox="0 0 18 18" fill="none" xmlns="http://www.w3.org/2000/svg">
<path d="M1.21799 2.09204L2.10899 2.54603L1.21799 2.09204ZM2.0918 1.21799L2.54579 2.10899L2.0918 1.21799ZM2.0918 16.782L2.54579 15.891H2.54579L2.0918 16.782ZM1.21799 15.908L0.32698 16.362H0.32698L1.21799 15.908ZM16.7822 15.908L15.8912 15.454L16.7822 15.908ZM15.9078 16.782L15.4538 15.891L15.9078 16.782ZM16.7822 2.09204L15.8912 2.54603V2.54603L16.7822 2.09204ZM15.9078 1.21799L16.3618 0.32698V0.32698L15.9078 1.21799ZM9 7C8.44772 7 8 7.44772 8 8C8 8.55228 8.44772 9 9 9V7ZM13 9C13.5523 9 14 8.55228 14 8C14 7.44772 13.5523 7 13 7V9ZM9 4C8.44772 4 8 4.44772 8 5C8 5.55228 8.44772 6 9 6V4ZM13 6C13.5523 6 14 5.55228 14 5C14 4.44772 13.5523 4 13 4V6ZM4 17C4 17.5523 4.44772 18 5 18C5.55228 18 6 17.5523 6 17H4ZM6 1C6 0.447715 5.55229 0 5 0C4.44772 0 4 0.447715 4 1L6 1ZM16 4.20001V13.8H18V4.20001H16ZM13.8002 16H4.2002V18H13.8002V16ZM2 13.8V4.20001H0V13.8H2ZM4.2002 2H13.8002V0H4.2002V2ZM2 4.20001C2 3.62346 2.00078 3.25119 2.02393 2.96785C2.04612 2.69619 2.0838 2.59548 2.10899 2.54603L0.32698 1.63805C0.134187 2.01643 0.0628707 2.40964 0.0305695 2.80499C-0.000777721 3.18866 0 3.65646 0 4.20001H2ZM4.2002 0C3.65663 0 3.18874 -0.000777125 2.80498 0.0305674C2.40962 0.0628601 2.01624 0.134156 1.63781 0.32698L2.54579 2.10899C2.59517 2.08383 2.69595 2.04613 2.9678 2.02393C3.25126 2.00078 3.62365 2 4.2002 2V0ZM2.10899 2.54603C2.205 2.35761 2.35788 2.20474 2.54579 2.10899L1.63781 0.32698C1.07306 0.614732 0.614469 1.07382 0.32698 1.63805L2.10899 2.54603ZM4.2002 16C3.62367 16 3.25127 15.9992 2.96782 15.9761C2.69598 15.9538 2.59519 15.9161 2.54579 15.891L1.63781 17.673C2.01623 17.8658 2.40959 17.9371 2.80496 17.9694C3.18873 18.0008 3.65662 18 4.2002 18V16ZM0 13.8C0 14.3436 -0.000777721 14.8114 0.0305696 15.195C0.062871 15.5904 0.134188 15.9836 0.32698 16.362L2.10899 15.454C2.0838 15.4045 2.04612 15.3038 2.02393 15.0322C2.00078 14.7488 2 14.3766 2 13.8H0ZM2.54579 15.891C2.35784 15.7952 2.20498 15.6424 2.10899 15.454L0.32698 16.362C0.61449 16.9262 1.0731 17.3853 1.63781 17.673L2.54579 15.891ZM16 13.8C16 14.3767 15.9993 14.7489 15.9762 15.0323C15.954 15.304 15.9164 15.4046 15.8912 15.454L17.6732 16.362C17.8661 15.9835 17.9373 15.5902 17.9695 15.1949C18.0008 14.8113 18 14.3435 18 13.8H16ZM13.8002 18C14.3438 18 14.8115 18.0008 15.1951 17.9694C15.5904 17.9371 15.9835 17.8657 16.3618 17.673L15.4538 15.891C15.4043 15.9162 15.3036 15.9539 15.0321 15.9761C14.7489 15.9992 14.3767 16 13.8002 16V18ZM15.8912 15.454C15.7956 15.6417 15.6424 15.7949 15.4538 15.891L16.3618 17.673C16.9258 17.3856 17.3854 16.9269 17.6732 16.362L15.8912 15.454ZM18 4.20001C18 3.65656 18.0008 3.18875 17.9696 2.80515C17.9373 2.40986 17.8661 2.01654 17.6732 1.63805L15.8912 2.54603C15.9164 2.59536 15.954 2.69598 15.9762 2.96769C15.9993 3.2511 16 3.62336 16 4.20001H18ZM13.8002 2C14.3768 2 14.7489 2.00078 15.0321 2.02393C15.3036 2.04611 15.4043 2.08377 15.4538 2.10899L16.3618 0.32698C15.9835 0.134215 15.5904 0.0628801 15.1951 0.0305714C14.8115 -0.000778198 14.3437 0 13.8002 0V2ZM17.6732 1.63805C17.3854 1.07315 16.9259 0.614392 16.3618 0.32698L15.4538 2.10899C15.6424 2.20508 15.7956 2.35828 15.8912 2.54603L17.6732 1.63805ZM9 9H13V7H9V9ZM9 6H13V4H9V6ZM6 17L6 1L4 1L4 17H6Z" fill="white"/>
</svg>

<svg width="18" height="18" fill="none" xmlns="http://www.w3.org/2000/svg"><path d="m1.218 2.092.891.454-.891-.454Zm.874-.874.454.891-.454-.891Zm0 15.564.454-.891-.454.891Zm-.874-.874-.891.454.891-.454Zm15.564 0-.89-.454.89.454Zm-.874.874-.454-.891.454.891Zm.874-14.69-.89.454.89-.454Zm-.874-.874.454-.891-.454.891ZM9 7a1 1 0 0 0 0 2V7Zm4 2a1 1 0 1 0 0-2v2ZM9 4a1 1 0 0 0 0 2V4Zm4 2a1 1 0 1 0 0-2v2ZM4 17a1 1 0 1 0 2 0H4ZM6 1a1 1 0 1 0-2 0h2Zm10 3.2v9.6h2V4.2h-2ZM13.8 16H4.2v2h9.6v-2ZM2 13.8V4.2H0v9.6h2ZM4.2 2h9.6V0H4.2v2ZM2 4.2c0-.577 0-.949.024-1.232.022-.272.06-.373.085-.422L.327 1.638c-.193.378-.264.772-.296 1.167C-.001 3.189 0 3.656 0 4.2h2ZM4.2 0c-.543 0-1.01 0-1.395.03-.395.033-.789.104-1.167.297l.908 1.782c.05-.025.15-.063.422-.085C3.25 2 3.624 2 4.2 2V0ZM2.11 2.546a1 1 0 0 1 .437-.437L1.638.327A3 3 0 0 0 .327 1.638l1.782.908ZM4.2 16c-.576 0-.949 0-1.232-.024-.272-.022-.373-.06-.422-.085l-.908 1.782c.378.193.772.264 1.167.296.384.032.852.031 1.395.031v-2ZM0 13.8c0 .544 0 1.011.03 1.395.033.395.104.789.297 1.167l1.782-.908c-.025-.05-.063-.15-.085-.422C2 14.75 2 14.377 2 13.8H0Zm2.546 2.091a1 1 0 0 1-.437-.437l-1.782.908a3 3 0 0 0 1.31 1.311l.909-1.782ZM16 13.8c0 .577 0 .949-.024 1.232-.022.272-.06.373-.085.422l1.782.908c.193-.378.264-.772.297-1.167.03-.384.03-.851.03-1.395h-2ZM13.8 18c.544 0 1.011 0 1.395-.03.395-.033.788-.104 1.167-.297l-.908-1.782c-.05.025-.15.063-.422.085C14.75 16 14.377 16 13.8 16v2Zm2.091-2.546a1 1 0 0 1-.437.437l.908 1.782a3 3 0 0 0 1.311-1.311l-1.782-.908ZM18 4.2c0-.543 0-1.011-.03-1.395-.033-.395-.104-.788-.297-1.167l-1.782.908c.025.05.063.15.085.422C16 3.25 16 3.623 16 4.2h2ZM13.8 2c.577 0 .949 0 1.232.024.272.022.372.06.422.085l.908-1.782c-.378-.193-.772-.264-1.167-.296C14.812-.001 14.344 0 13.8 0v2Zm3.873-.362A3 3 0 0 0 16.362.327l-.908 1.782a1 1 0 0 1 .437.437l1.782-.908ZM9 9h4V7H9v2Zm0-3h4V4H9v2ZM6 17V1H4v16h2Z" fill="#fff"/></svg>
